X: 24380
T: Lovely Bannion
R: barndance
M: 4/4
K: Dminor
ABAG FGAB|cdcA cdcB|ABAG FGAg|fde^c Ad d2:|
defg afge|fdcA FGAc|defg afge|fed^c Ad d2|
defg a2 ge|(3fga ge f2 df|afge abag|fde^c Ad d2||

